magnify-close.svg

<svg fill="currentColor" viewBox="0 0 24 24"><path d="M9 2a7 7 0 0 1 7 7c0 1.5-.5 3-1.39 4.19l.8.81H16l6 6-2 2-6-6v-.59l-.81-.8A7.07 7.07 0 0 1 9 16a7 7 0 0 1-7-7 7 7 0 0 1 7-7m2.12 3.46L9 7.59 6.88 5.46 5.46 6.88 7.59 9l-2.13 2.12 1.42 1.42L9 10.41l2.12 2.13 1.42-1.42L10.41 9l2.13-2.12z"/></svg>

<svg  viewBox="0 0 24 24" fill="currentColor"><path  d="M9,2A7,7 0 0,1 16,9C16,10.5 15.5,12 14.61,13.19L15.41,14H16L22,20L20,22L14,16V15.41L13.19,14.61C12,15.5 10.5,16 9,16A7,7 0 0,1 2,9A7,7 0 0,1 9,2M11.12,5.46L9,7.59L6.88,5.46L5.46,6.88L7.59,9L5.46,11.12L6.88,12.54L9,10.41L11.12,12.54L12.54,11.12L10.41,9L12.54,6.88L11.12,5.46Z"/></svg>
